X: 27566
T: Money In Both Pockets
R: reel
M: 4/4
K: Dmajor
D3d cAAB|cded cAGE|D3d cAAB|cAGE EDDG|
EGAB =c3^c|dfed cAAg|fged cAcd|cAGE EDCE|
D3d cAAB|cded cAGE|D3d cAAB|cAGE EDDG|
EGAB =c3^c|dfed cAAg|fged cAcd|cAGE EDDA|
d3e f3g|agge dcAG|Adde fded|=cAGE EDDA|
d3e f3g|afge defg|affe dfed|cAGE EDDA|
dcde fdfg|a2ge dcAG|Adde fded|cAGE EDDA|
d3e f3g|agge defg|affe dfed|cAGE EDCE|

